usr/share/icons/biglinux-icons-material/24/actions/map-mercator.svg

<svg xmlns="http://www.w3.org/2000/svg" viewBox="0 0 24 24"><path d="M3 4v15h16V4H3zm1 1h4v3H4V5zm5 0h4v3H9V5zm5 0h4v3h-4V5zM4 9h4v2H4V9zm5 0h4v2H9V9zm5 0h4v2h-4V9zM4 12h4v2H4v-2zm5 0h4v2H9v-2zm5 0h4v2h-4v-2zM4 15h4v3H4v-3zm5 0h4v3H9v-3zm5 0h4v3h-4v-3z" style="fill:currentColor;fill-opacity:1;stroke:none;color:#dedede" transform="translate(1 1)"/></svg>

<svg xmlns="http://www.w3.org/2000/svg" viewBox="0 0 24 24">
  <defs id="defs3051">
    <style type="text/css" id="current-color-scheme">
      .ColorScheme-Text {
        color:#dedede;
      }
      </style>
  </defs><g transform="translate(1,1)">
 <path 
    style="fill:currentColor;fill-opacity:1;stroke:none" 
    d="M 3 4 L 3 19 L 8 19 L 9 19 L 13 19 L 14 19 L 19 19 L 19 4 L 3 4 z M 4 5 L 8 5 L 8 8 L 4 8 L 4 5 z M 9 5 L 13 5 L 13 8 L 9 8 L 9 5 z M 14 5 L 18 5 L 18 8 L 14 8 L 14 5 z M 4 9 L 8 9 L 8 11 L 4 11 L 4 9 z M 9 9 L 13 9 L 13 11 L 9 11 L 9 9 z M 14 9 L 18 9 L 18 11 L 14 11 L 14 9 z M 4 12 L 8 12 L 8 14 L 4 14 L 4 12 z M 9 12 L 13 12 L 13 14 L 9 14 L 9 12 z M 14 12 L 18 12 L 18 14 L 14 14 L 14 12 z M 4 15 L 8 15 L 8 18 L 4 18 L 4 15 z M 9 15 L 13 15 L 13 18 L 9 18 L 9 15 z M 14 15 L 18 15 L 18 18 L 14 18 L 14 15 z "
    class="ColorScheme-Text"
    />  
</g></svg>
